resources/haticons/SVG/googleanalytics.svg

<!-- Generated by IcoMoon.io -->
<svg version="1.1" xmlns="http://www.w3.org/2000/svg" width="24" height="24" viewBox="0 0 24 24">
<title>googleanalytics</title>
<path fill="#ffc107" d="M22.074 24h-20.179c-1.043 0-1.895-0.853-1.895-1.896v-4.419c0-1.043 0.852-1.896 1.895-1.896h5.685v-6.315c0-1.042 0.852-1.894 1.894-1.894h6.331v-5.655c0-1.055 0.869-1.925 1.924-1.925h4.346c1.055 0 1.925 0.87 1.925 1.926v20.148c0 1.056-0.87 1.926-1.926 1.926z"></path>
</svg>

<svg xmlns="http://www.w3.org/2000/svg" width="24" height="24"><path fill="#ffc107" d="M22.074 24H1.895A1.9 1.9 0 0 1 0 22.104v-4.419a1.9 1.9 0 0 1 1.895-1.896H7.58V9.474A1.9 1.9 0 0 1 9.474 7.58h6.331V1.925C15.805.87 16.674 0 17.729 0h4.346C23.13 0 24 .87 24 1.926v20.148C24 23.13 23.13 24 22.074 24z"/></svg>
